src/images/icons/arrow-play-svg.svg

<svg width="38" height="38" viewBox="0 0 38 38" fill="none" xmlns="http://www.w3.org/2000/svg">
<rect width="38" height="38" rx="2" fill="#003067"/>
<path fill-rule="evenodd" clip-rule="evenodd" d="M10.1333 30.0736C10.5543 29.9832 18.4595 25.4162 19.4418 24.8736L28.8439 19.4928L28.3294 19.0858C28.1423 18.9954 28.002 18.9049 27.7681 18.7693C27.3471 18.5432 26.9729 18.3623 26.5519 18.091C25.7567 17.6388 25.055 17.2319 24.2598 16.7797C22.6694 15.9206 21.1726 15.0162 19.5354 14.1119C18.3192 13.4336 10.6478 8.9571 10.1333 8.86667V30.0736Z" fill="#F0F0F0"/>
</svg>

<svg xmlns="http://www.w3.org/2000/svg" width="38" height="38" fill="none" viewBox="0 0 38 38">
	<rect width="38" height="38" fill="#003067" rx="2"/>
	<path fill="#F0F0F0" fill-rule="evenodd" d="M10.133 30.074c.421-.09 8.326-4.658 9.309-5.2l9.402-5.381-.515-.407c-.187-.09-.327-.181-.56-.317-.422-.226-.796-.407-1.217-.678-.795-.452-1.497-.86-2.292-1.311-1.59-.86-3.087-1.764-4.725-2.668-1.216-.678-8.887-5.155-9.402-5.245v21.207z" clip-rule="evenodd"/>
</svg>
